X:625
T:Leveneep Head #1
C:Joe Buchanan's Scottish Tome - Page 185.1
I:185 1
Z:Carl Allison
R:Reel
L:1/8
M:4/4
K:Amaj
"A"A,2 CE "D"D2 FA | "E7"E2 Ad "A7"cBAG | "D"FAdf "A"e2 e2 | "Bm7"dcBA "E7"GEDB, |
"A"A,2 CE "D"D2 FA | "E7"E2 Ad "A7"cBAG | "D"FAdf eEGB | "A"c2 "D"A2 "A"A2 :|
cd | "A"eAce a2 "A7"ga | "D"fedf "A"eAcA | "D"FAdf "A"eAce | "Bm7"dcBA B2 "E7"cd |
"A"eAce "A7"a2 ga | "D"fedf "A"eAcA | "D"FAdf "E7"eEGB | "A"c2 "D"A2 "A"A2 "E7"cd |
"A"eAce a2 "A7"ga | "D"fedf "A"eAcA | "D"FAdf "A"eAce | "Bm7"dcBA "E7"GEDB, |
"A"A,2 CE "D"D2 FA | "E7"E2 Ad "B7"cBAG | "D"FAdf "E7"eEGB | "A"c2 "D"A2 "A"A2  |]
